activity/scommander.svg

<?xml version="1.0" ?><!DOCTYPE svg  PUBLIC '-//W3C//DTD SVG 1.1//EN'  'http://www.w3.org/Graphics/SVG/1.1/DTD/svg11.dtd' [
	<!ENTITY stroke_color "#000000">
	<!ENTITY fill_color "#ffffff">
]>
<svg
   xmlns:dc="http://purl.org/dc/elements/1.1/"
   xmlns:cc="http://creativecommons.org/ns#"
   xmlns:rdf="http://www.w3.org/1999/02/22-rdf-syntax-ns#"
   xmlns:svg="http://www.w3.org/2000/svg"
   xmlns="http://www.w3.org/2000/svg"
   xmlns:sodipodi="http://sodipodi.sourceforge.net/DTD/sodipodi-0.dtd"
   xmlns:inkscape="http://www.inkscape.org/namespaces/inkscape"
   enable-background="new 0 0 55 55"
   height="55px"
   id="Layer_1"
   version="1.1"
   viewBox="0 0 55 55"
   width="55px"
   x="0px"
   xml:space="preserve"
   y="0px"
   sodipodi:version="0.32"
   inkscape:version="0.46"
   sodipodi:docname="scommander.svg"
   inkscape:output_extension="org.inkscape.output.svg.inkscape"><metadata
     id="metadata2457"><rdf:RDF><cc:Work
         rdf:about=""><dc:format>image/svg+xml</dc:format><dc:type
           rdf:resource="http://purl.org/dc/dcmitype/StillImage" /></cc:Work></rdf:RDF></metadata><defs
     id="defs2455"><inkscape:perspective
       sodipodi:type="inkscape:persp3d"
       inkscape:vp_x="0 : 27.5 : 1"
       inkscape:vp_y="0 : 1000 : 0"
       inkscape:vp_z="55 : 27.5 : 1"
       inkscape:persp3d-origin="27.5 : 18.333333 : 1"
       id="perspective2459" /></defs><sodipodi:namedview
     inkscape:window-height="816"
     inkscape:window-width="1152"
     inkscape:pageshadow="2"
     inkscape:pageopacity="0.0"
     guidetolerance="10.0"
     gridtolerance="10.0"
     objecttolerance="10.0"
     borderopacity="1.0"
     bordercolor="#666666"
     pagecolor="&fill_color;"
     id="base"
     showgrid="false"
     inkscape:zoom="11.313708"
     inkscape:cx="27.5"
     inkscape:cy="27.5"
     inkscape:window-x="-4"
     inkscape:window-y="-4"
     inkscape:current-layer="Layer_1" /><g
     display="block"
     id="activity-journal"
     transform="translate(0.1767767,-0.7071068)"
     style="display:block">
	<path
   d="M 45.866,44.669 C 45.866,47.18 44.338,49 41.534,49 L 12.077,49 L 12.077,6 L 41.535,6 C 43.685,6 45.867,8.154 45.867,10.33 L 45.866,44.669 L 45.866,44.669 z"
   id="path2444"
   style="fill:&fill_color;;stroke:&stroke_color;;stroke-width:3.5;stroke-linecap:round;stroke-linejoin:round" />
	
		<line
   x1="21.341"
   x2="21.341"
   y1="6.1209998"
   y2="48.881001"
   id="line2446"
   style="fill:none;stroke:&stroke_color;;stroke-width:3.5;stroke-linecap:round;stroke-linejoin:round" />
	<path
   d="M 7.384,14.464 C 7.384,14.464 9.468,15.159 11.554,15.159 C 13.64,15.159 15.727,14.464 15.727,14.464"
   id="path2448"
   style="fill:none;stroke:&stroke_color;;stroke-width:3.5;stroke-linecap:round;stroke-linejoin:round" />
	<path
   d="M 7.384,28.021 C 7.384,28.021 9.296,28.716 11.729,28.716 C 14.162,28.716 15.728,28.021 15.728,28.021"
   id="path2450"
   style="fill:none;stroke:&stroke_color;;stroke-width:3.5;stroke-linecap:round;stroke-linejoin:round" />
	<path
   d="M 7.384,41.232 C 7.384,41.232 9.12,41.927 11.902,41.927 C 14.683,41.927 15.727,41.232 15.727,41.232"
   id="path2452"
   style="fill:none;stroke:&stroke_color;;stroke-width:3.5;stroke-linecap:round;stroke-linejoin:round" />
</g><path
     style="fill:none;fill-rule:evenodd;stroke:&stroke_color;;stroke-width:1px;stroke-linecap:butt;stroke-linejoin:miter;stroke-opacity:1"
     d="M 26.958446,28.660272 C 31.819805,23.091806 31.819805,23.091806 31.819805,23.091806 C 36.504388,28.129942 36.504388,28.129942 36.504388,28.129942"
     id="path2469" /><path
     style="fill:none;fill-rule:evenodd;stroke:&stroke_color;;stroke-width:1px;stroke-linecap:butt;stroke-linejoin:miter;stroke-opacity:1"
     d="M 26.870058,32.726136 C 31.643028,26.715729 31.643028,26.715729 31.643028,26.715729 C 35.974058,32.195806 35.974058,32.195806 35.974058,32.195806"
     id="path2471" /></svg>

<?xml version="1.0" ?><!DOCTYPE svg  PUBLIC '-//W3C//DTD SVG 1.1//EN'  'http://www.w3.org/Graphics/SVG/1.1/DTD/svg11.dtd' [
	<!ENTITY stroke_color "#666666">
	<!ENTITY fill_color "#ffffff">
]><svg enable-background="new 0 0 55 55" height="55px" id="Layer_1" version="1.1" viewBox="0 0 55 55" width="55px" x="0px" xml:space="preserve" xmlns="http://www.w3.org/2000/svg" xmlns:xlink="http://www.w3.org/1999/xlink" y="0px"><g display="block" id="activity-journal">
	<path d="M45.866,44.669   c0,2.511-1.528,4.331-4.332,4.331H12.077V6h29.458c2.15,0,4.332,2.154,4.332,4.33L45.866,44.669L45.866,44.669z" fill="&fill_color;" stroke="&stroke_color;" stroke-linecap="round" stroke-linejoin="round" stroke-width="3.5"/>
	
		<line fill="none" stroke="&stroke_color;" stroke-linecap="round" stroke-linejoin="round" stroke-width="3.5" x1="21.341" x2="21.341" y1="6.121" y2="48.881"/>
	<path d="M7.384,14.464   c0,0,2.084,0.695,4.17,0.695c2.086,0,4.173-0.695,4.173-0.695" fill="none" stroke="&stroke_color;" stroke-linecap="round" stroke-linejoin="round" stroke-width="3.5"/>
	<path d="M7.384,28.021   c0,0,1.912,0.695,4.345,0.695s3.999-0.695,3.999-0.695" fill="none" stroke="&stroke_color;" stroke-linecap="round" stroke-linejoin="round" stroke-width="3.5"/>
	<path d="M7.384,41.232   c0,0,1.736,0.695,4.518,0.695c2.781,0,3.825-0.695,3.825-0.695" fill="none" stroke="&stroke_color;" stroke-linecap="round" stroke-linejoin="round" stroke-width="3.5"/>
</g></svg>
